!! 00000] TT[WS
!!!OTL: Shiquan renxen
!!!ARE: Asia, China, Shanxi Pingjie
!! Ethnic Group: Han
!! WII, 240 (1)
!!!SCT: J0760
!!!YEM: Copyright 1995, estate of Helmut Schaffrath.
**kern
*ICvox
*Ivox
*M4/4
*k[f#]
*G:
{8a
8a
8dd
16ee
16dd
8b
8a
8e
8d
=1
8a
16a
16a
8g
16f#
16e
2d}
=2
{8a
8a
8dd
8f#
8a
8g
8f#
8e
=3
8a
8g
8f#
8e
2d}
=4
{8a
8g
4a
8a
8dd
8b
16dd
16dd
=5
8b
8a
8a
8dd
4g
8f#
8e}
=6
{8a
8b
8dd
8f#
8a
8g
8f#
8e
=7
8a
8g
8f#
8e
2d
=8
8a
8b
8a
8dd
2g}
==
!!!AGN: Xiaodiao. XÅshi, Xinminge
!!!ONB: ESAC (Essen Associative Code) Database: CHINA
!!!AMT: simple quadruple
!!!AIN: vox
!!!EED: Helmut Schaffrath
!!!EEV: 1.0
*-
